X:12
T:Bransle des pois
R:Bransle
C:Trad.
S:Thoinot Arbeau
B:Orchesographie (1589)
O:France
A:Champaigne
Z:<anamnese@laposte.net> -- http://anamnese.fr.st
Z:Transcrit et/ou corrig? par Michel BELLON - 2006-11-25
Z:Pour toute observation mailto:galouvielle@free.fr
M:2/2
L:1/4
Q:1/4=200
K:C
c2 cd | e2 ee | fe dd | e2 A2 |\
c>B cd | e2 ee | fe dd | e2 A2
Q:1/2=150
|: AB G2 | AB cA | AB cd | cB A2 :|
<end>
<start>
